www/assets/icons/fingerprint.svg

<svg width="24" height="24" viewBox="0 0 24 24" xmlns="http://www.w3.org/2000/svg" fill='currentColor'><path d="M17.815 4.47C17.735 4.47 17.655 4.45 17.585 4.41C15.665 3.42 14.005 3 12.015 3C10.035 3 8.15499 3.47 6.44499 4.41C6.20499 4.54 5.90499 4.45 5.76499 4.21C5.63499 3.97 5.72499 3.66 5.96499 3.53C7.82499 2.52 9.86499 2 12.015 2C14.145 2 16.005 2.47 18.045 3.52C18.295 3.65 18.385 3.95 18.255 4.19C18.165 4.37 17.995 4.47 17.815 4.47ZM3.50499 9.72C3.40499 9.72 3.30499 9.69 3.21499 9.63C2.98499 9.47 2.93499 9.16 3.09499 8.93C4.08499 7.53 5.34499 6.43 6.84499 5.66C9.98499 4.04 14.005 4.03 17.155 5.65C18.655 6.42 19.915 7.51 20.905 8.9C21.065 9.12 21.015 9.44 20.785 9.6C20.555 9.76 20.245 9.71 20.085 9.48C19.185 8.22 18.045 7.23 16.695 6.54C13.825 5.07 10.155 5.07 7.29499 6.55C5.93499 7.25 4.79499 8.25 3.89499 9.51C3.81499 9.65 3.66499 9.72 3.50499 9.72ZM9.75499 21.79C9.62499 21.79 9.49499 21.74 9.40499 21.64C8.53499 20.77 8.06499 20.21 7.39499 19C6.70499 17.77 6.34499 16.27 6.34499 14.66C6.34499 11.69 8.88499 9.27 12.005 9.27C15.125 9.27 17.665 11.69 17.665 14.66C17.665 14.94 17.445 15.16 17.165 15.16C16.885 15.16 16.665 14.94 16.665 14.66C16.665 12.24 14.575 10.27 12.005 10.27C9.43499 10.27 7.34499 12.24 7.34499 14.66C7.34499 16.1 7.66499 17.43 8.27499 18.51C8.91499 19.66 9.35499 20.15 10.125 20.93C10.315 21.13 10.315 21.44 10.125 21.64C10.015 21.74 9.88499 21.79 9.75499 21.79ZM16.925 19.94C15.735 19.94 14.685 19.64 13.825 19.05C12.335 18.04 11.445 16.4 11.445 14.66C11.445 14.38 11.665 14.16 11.945 14.16C12.225 14.16 12.445 14.38 12.445 14.66C12.445 16.07 13.165 17.4 14.385 18.22C15.095 18.7 15.925 18.93 16.925 18.93C17.165 18.93 17.565 18.9 17.965 18.83C18.235 18.78 18.495 18.96 18.545 19.24C18.595 19.51 18.415 19.77 18.135 19.82C17.565 19.93 17.065 19.94 16.925 19.94ZM14.915 22C14.875 22 14.825 21.99 14.785 21.98C13.195 21.54 12.155 20.95 11.065 19.88C9.66499 18.49 8.89499 16.64 8.89499 14.66C8.89499 13.04 10.275 11.72 11.975 11.72C13.675 11.72 15.055 13.04 15.055 14.66C15.055 15.73 15.985 16.6 17.135 16.6C18.285 16.6 19.215 15.73 19.215 14.66C19.215 10.89 15.965 7.83 11.965 7.83C9.12499 7.83 6.52499 9.41 5.35499 11.86C4.96499 12.67 4.76499 13.62 4.76499 14.66C4.76499 15.44 4.83499 16.67 5.43499 18.27C5.53499 18.53 5.40499 18.82 5.14499 18.91C4.88499 19.01 4.59499 18.87 4.50499 18.62C4.01499 17.31 3.77499 16.01 3.77499 14.66C3.77499 13.46 4.00499 12.37 4.45499 11.42C5.78499 8.63 8.73499 6.82 11.965 6.82C16.515 6.82 20.215 10.33 20.215 14.65C20.215 16.27 18.835 17.59 17.135 17.59C15.435 17.59 14.055 16.27 14.055 14.65C14.055 13.58 13.125 12.71 11.975 12.71C10.825 12.71 9.89499 13.58 9.89499 14.65C9.89499 16.36 10.555 17.96 11.765 19.16C12.715 20.1 13.625 20.62 15.035 21.01C15.305 21.08 15.455 21.36 15.385 21.62C15.335 21.85 15.125 22 14.915 22Z"/></svg>

<svg xmlns="http://www.w3.org/2000/svg" width="24" height="24" viewBox="0 0 24 24" fill='currentColor'><path d="M17.815 4.47c-.08 0-.16-.02-.23-.06-1.92-.99-3.58-1.41-5.57-1.41-1.98 0-3.86.47-5.57 1.41-.24.13-.54.04-.68-.2a.506.506 0 0 1 .2-.68C7.825 2.52 9.865 2 12.015 2c2.13 0 3.99.47 6.03 1.52.25.13.34.43.21.67a.49.49 0 0 1-.44.28M3.505 9.72a.499.499 0 0 1-.41-.79c.99-1.4 2.25-2.5 3.75-3.27 3.14-1.62 7.16-1.63 10.31-.01 1.5.77 2.76 1.86 3.75 3.25a.5.5 0 0 1-.12.7c-.23.16-.54.11-.7-.12a9.4 9.4 0 0 0-3.39-2.94c-2.87-1.47-6.54-1.47-9.4.01-1.36.7-2.5 1.7-3.4 2.96-.08.14-.23.21-.39.21m6.25 12.07a.47.47 0 0 1-.35-.15c-.87-.87-1.34-1.43-2.01-2.64-.69-1.23-1.05-2.73-1.05-4.34 0-2.97 2.54-5.39 5.66-5.39s5.66 2.42 5.66 5.39c0 .28-.22.5-.5.5s-.5-.22-.5-.5c0-2.42-2.09-4.39-4.66-4.39s-4.66 1.97-4.66 4.39c0 1.44.32 2.77.93 3.85.64 1.15 1.08 1.64 1.85 2.42.19.2.19.51 0 .71-.11.1-.24.15-.37.15m7.17-1.85c-1.19 0-2.24-.3-3.1-.89-1.49-1.01-2.38-2.65-2.38-4.39 0-.28.22-.5.5-.5s.5.22.5.5c0 1.41.72 2.74 1.94 3.56.71.48 1.54.71 2.54.71.24 0 .64-.03 1.04-.1.27-.05.53.13.58.41.05.27-.13.53-.41.58-.57.11-1.07.12-1.21.12M14.915 22c-.04 0-.09-.01-.13-.02-1.59-.44-2.63-1.03-3.72-2.1a7.3 7.3 0 0 1-2.17-5.22c0-1.62 1.38-2.94 3.08-2.94s3.08 1.32 3.08 2.94c0 1.07.93 1.94 2.08 1.94s2.08-.87 2.08-1.94c0-3.77-3.25-6.83-7.25-6.83-2.84 0-5.44 1.58-6.61 4.03-.39.81-.59 1.76-.59 2.8 0 .78.07 2.01.67 3.61.1.26-.03.55-.29.64-.26.1-.55-.04-.64-.29a11.1 11.1 0 0 1-.73-3.96c0-1.2.23-2.29.68-3.24 1.33-2.79 4.28-4.6 7.51-4.6 4.55 0 8.25 3.51 8.25 7.83 0 1.62-1.38 2.94-3.08 2.94s-3.08-1.32-3.08-2.94c0-1.07-.93-1.94-2.08-1.94s-2.08.87-2.08 1.94c0 1.71.66 3.31 1.87 4.51.95.94 1.86 1.46 3.27 1.85.27.07.42.35.35.61-.05.23-.26.38-.47.38"/></svg>
